X:224
T:Cavan Reel, The
T:The College Grove
T:The Green Jacket
B:Ceol Rince na hEireann Bk 2
N:from Johnny Maguire, whistle palyer
Z:Nigel Gatherer
M:4/4
O:Ireland
L:1/8
K:D
D2 (3FED A2 FA|ABcA dBcA|D2 (3FED A2 AB|cAGE ED D2|
D2 FD ADFA|ABcA dBcA|D2 (3FED A2 AB|cAGE ED D2:|
f2 df fddf|e2 cA BG e2|ff/f/ de fd d>d|cABG ED/E/ D2|
fddf f2 df|e2 cA BG e2|Addc defg|a2 ge ed d2:|
<end>
<start>
